lib/brands/icons/kayako.svg

<svg xmlns="http://www.w3.org/2000/svg" fill="none" aria-hidden="true" viewBox="0 0 48 48"><g id="kayako-Icon"><g id="kayako"><path id="vector" fill="#F15713" d="M7.5 41.8801C7.5 42.838 8.05851 43.5 9.00743 43.5H26.9608C24.5513 38.7409 21.8538 34.3998 18.496 30.3302C15.0219 32.5084 11.3499 34.3919 7.5 35.927V41.8801Z"/><path id="vector_2" fill="#69AAB5" d="M7.5 12.2359C11.3401 13.7662 15.0037 15.6442 18.4692 17.8144C21.8386 13.7375 24.756 9.27127 27.1715 4.5H9.37104C8.33746 4.5 7.5 5.34565 7.5 6.38899"/><path id="vector_3" fill="#FFB1A2" d="M18.4963 30.3302C21.4795 28.4601 24.3165 26.3765 26.9732 24.0812C24.3086 21.7791 21.4612 19.6894 18.4707 17.8151C16.6533 20.0146 14.7006 22.0933 12.6401 24.0568C14.711 26.0312 16.6721 28.1203 18.4963 30.3302Z"/><path id="vector_4" fill="#F37036" d="M26.9723 24.0818C24.3158 26.3769 21.479 28.4603 18.4961 30.3302C21.8539 34.3998 24.5513 38.7409 26.9608 43.4999L40.443 43.5C41.6874 43.5 42.1472 42.6172 41.6874 41.8246C37.7869 35.1058 32.7968 29.1154 26.9723 24.0818Z"/><path id="vector_5" fill="#85B8C1" d="M27.1706 4.50202C24.7563 9.27039 21.8363 13.7401 18.4693 17.815C21.4598 19.6894 24.3085 21.7791 26.9731 24.0812C32.8853 18.97 37.9392 12.876 41.8647 6.03389C42.2545 5.35419 41.755 4.5 40.9754 4.5L27.1706 4.50202Z"/><path id="vector_6" fill="#F76F6D" d="M7.5 28.5102C9.28334 27.1069 10.9979 25.6224 12.6405 24.0574C10.9979 22.493 9.28334 21.0067 7.5 19.6052V28.5102Z"/><path id="vector_7" fill="#F39D90" d="M7.5 12.236C11.3401 13.7662 15.0037 15.6442 18.4692 17.8144C16.6518 20.0139 14.7004 22.0934 12.64 24.0568C10.9974 22.4925 9.28332 21.0068 7.50011 19.6054L7.5 12.236Z"/><path id="vector_8" fill="#FA8176" d="M18.4961 30.3303C16.672 28.1204 14.7107 26.0312 12.64 24.0569C10.9973 25.6219 9.28334 27.1071 7.5 28.5104V35.9269C11.3499 34.3918 15.0221 32.5085 18.4961 30.3303Z"/></g></g></svg>

<svg xmlns="http://www.w3.org/2000/svg" fill="none" aria-hidden="true" viewBox="0 0 48 48"><path fill="#F15713" d="M7.5 41.88c0 .958.559 1.62 1.507 1.62h17.954c-2.41-4.76-5.107-9.1-8.465-13.17A68.382 68.382 0 0 1 7.5 35.927v5.953Z"/><path fill="#69AAB5" d="M7.5 12.236a68.339 68.339 0 0 1 10.97 5.578A71.79 71.79 0 0 0 27.171 4.5H9.37A1.88 1.88 0 0 0 7.5 6.389"/><path fill="#FFB1A2" d="M18.496 30.33a69.074 69.074 0 0 0 8.477-6.249 69.254 69.254 0 0 0-8.502-6.266 71.852 71.852 0 0 1-5.83 6.242 72.05 72.05 0 0 1 5.855 6.273Z"/><path fill="#F37036" d="M26.972 24.082a69.07 69.07 0 0 1-8.476 6.248c3.358 4.07 6.055 8.41 8.465 13.17h13.482c1.244 0 1.704-.883 1.244-1.675a69.752 69.752 0 0 0-14.715-17.743Z"/><path fill="#85B8C1" d="M27.17 4.502a71.864 71.864 0 0 1-8.7 13.313 69.279 69.279 0 0 1 8.503 6.266A69.775 69.775 0 0 0 41.865 6.034c.39-.68-.11-1.534-.89-1.534l-13.804.002Z"/><path fill="#F76F6D" d="M7.5 28.51a71.96 71.96 0 0 0 5.14-4.453 71.649 71.649 0 0 0-5.14-4.452v8.905Z"/><path fill="#F39D90" d="M7.5 12.236a68.33 68.33 0 0 1 10.97 5.578 71.846 71.846 0 0 1-5.83 6.243 71.656 71.656 0 0 0-5.14-4.452v-7.369Z"/><path fill="#FA8176" d="M18.496 30.33a72.05 72.05 0 0 0-5.856-6.273A71.983 71.983 0 0 1 7.5 28.51v7.417a68.378 68.378 0 0 0 10.996-5.597Z"/></svg>
